<?xml version="1.0" encoding="UTF-8"?>
<map version="1.10" tiledversion="1.10.2" orientation="isometric" renderorder="right-down" width="8" height="8" tilewidth="64" tileheight="32" infinite="0">
  <tileset firstgid="1" name="jungle" tilewidth="64" tileheight="32" tilecount="3" columns="3">
    <image source="../../tiles/jungle.png" width="192" height="32"/>
    <tile id="0">
      <properties>
        <property name="surface" value="floor"/>
      </properties>
    </tile>
    <tile id="1">
      <properties>
        <property name="surface" value="wall"/>
      </properties>
    </tile>
    <tile id="2">
      <properties>
        <property name="surface" value="wall_top"/>
      </properties>
    </tile>
  </tileset>
  <layer id="1" name="Floor" width="8" height="8">
    <data encoding="csv">2, 3, 3, 3, 3, 3, 3, 2, 2, 1, 1, 1, 1, 1, 1, 2, 2, 1, 2, 1, 1, 1, 1, 2, 2, 1, 1, 1, 1, 1, 1, 2, 1, 1, 1, 1, 1, 1, 1, 1, 2, 1, 1, 1, 1, 1, 1, 2, 2, 1, 1, 1, 1, 1, 1, 2, 2, 2, 2, 2, 1, 2, 2, 2,</data>
  </layer>
  <objectgroup id="2" name="Objects">
    <object id="1" name="ball_5" type="ball" x="256.0" y="96.0" width="32" height="32"/>
    <object id="2" name="statue_2" type="statue" x="128.0" y="192.0" width="32" height="32"/>
  </objectgroup>
</map>
