<?xml version="1.0" encoding="UTF-8"?>
<map version="1.10" tiledversion="1.10.0" orientation="isometric" renderorder="right-down" width="16" height="16" tilewidth="64" tileheight="32" infinite="0" nextobjectid="100">
 <tileset firstgid="1" source="../tilesets/castle.tsx"/>
 <layer id="1" name="Floor" width="16" height="16">
  <data encoding="csv">
0,0,0,0,0,0,0,0,0,0,0,0,0,0,0,0,
0,0,0,0,0,0,0,0,0,0,0,0,0,0,0,0,
0,0,0,0,0,0,0,0,0,0,0,0,0,0,0,0,
0,0,0,0,0,0,0,0,0,0,0,0,0,0,0,0,
0,0,0,0,0,0,0,0,0,0,0,0,0,0,0,0,
0,0,0,0,0,0,0,0,0,0,0,0,0,0,0,0,
0,0,0,0,0,0,0,0,0,0,0,0,0,0,0,0,
0,0,0,0,0,0,0,0,0,0,0,0,0,0,0,0,
0,0,0,0,0,0,0,0,0,0,0,0,0,0,0,0,
0,0,0,0,0,0,0,0,0,0,0,0,0,0,0,0,
0,0,0,0,0,0,0,0,0,0,0,0,0,0,0,0,
0,0,0,0,0,0,0,0,0,0,0,0,0,0,0,0,
0,0,0,0,0,0,0,0,0,0,0,0,0,0,0,0,
0,0,0,0,0,0,0,0,0,0,0,0,0,0,0,0,
0,0,0,0,0,0,0,0,0,0,0,0,0,0,0,0,
0,0,0,0,0,0,0,0,0,0,0,0,0,0,0,0
  </data>
 </layer>
 <layer id="2" name="Walls" width="16" height="16">
  <data encoding="csv">
0,2,2,2,2,2,2,2,2,2,2,2,2,2,2,0,
0,2,0,0,0,0,0,0,0,0,0,0,0,0,2,0,
0,2,0,0,0,0,0,0,0,0,0,0,0,0,2,0,
0,2,0,0,0,0,0,0,0,0,0,0,0,0,2,0,
0,2,0,0,0,0,0,0,0,0,0,0,0,0,2,0,
0,2,0,0,0,0,0,0,0,0,0,0,0,0,2,0,
0,2,0,0,0,0,0,0,0,0,0,0,0,0,2,0,
0,2,0,0,0,0,0,0,0,0,0,0,0,0,2,0,
0,2,0,0,0,0,0,0,0,0,0,0,0,0,2,0,
0,2,0,0,0,0,0,0,0,0,0,0,0,0,2,0,
0,2,0,0,0,0,0,0,0,0,0,0,0,0,2,0,
0,2,0,0,0,0,0,0,0,0,0,0,0,0,2,0,
0,2,0,0,0,0,0,0,0,0,0,0,0,0,2,0,
0,2,0,0,0,0,0,0,0,0,0,0,0,0,2,0,
0,2,0,0,0,0,0,0,0,0,0,0,0,0,2,0,
0,2,2,2,2,2,2,2,2,2,2,2,2,2,2,0
  </data>
 </layer>
 <objectgroup id="3" name="Entities" width="16" height="16">
  <object id="1" name="door_south" type="door" x="512.0" y="480.0" width="64.0" height="32.0">
   <properties>
    <property name="exit" type="string" value="{direction: south, room: bookworld_library_2, entrance: north, isLocked: false, keyId: null, oneWay: false}"/>
    <property name="exit.direction" type="string" value="south"/>
    <property name="exit.room" type="string" value="bookworld_library_2"/>
    <property name="exit.entrance" type="string" value="north"/>
    <property name="exit.isLocked" type="bool" value="false"/>
    <property name="exit.keyId" type="string" value="null"/>
    <property name="exit.oneWay" type="bool" value="false"/>
   </properties>
  </object>
  <object id="2" name="door_north_final" type="door" x="512.0" y="32.0" width="64.0" height="32.0">
   <properties>
    <property name="exit" type="string" value="{direction: north, room: blacktooth_throne, entrance: south, isLocked: true, keyId: key_final, oneWay: false}"/>
    <property name="exit.direction" type="string" value="north"/>
    <property name="exit.room" type="string" value="blacktooth_throne"/>
    <property name="exit.entrance" type="string" value="south"/>
    <property name="exit.isLocked" type="bool" value="true"/>
    <property name="exit.keyId" type="string" value="key_final"/>
    <property name="exit.oneWay" type="bool" value="false"/>
   </properties>
  </object>
  <object id="3" name="switch_final" type="switch" x="192.0" y="224.0" width="64.0" height="32.0">
   <properties>
    <property name="properties" type="string" value="{targetId: door_final_secret}"/>
   </properties>
  </object>
  <object id="4" name="door_final_secret" type="door" x="832.0" y="96.0" width="64.0" height="32.0">
   <properties>
    <property name="exit" type="string" value="{direction: north, room: blacktooth_throne, entrance: south, isLocked: true, keyId: null, oneWay: false}"/>
    <property name="properties" type="string" value="{requiresSwitch: switch_final}"/>
    <property name="exit.direction" type="string" value="north"/>
    <property name="exit.room" type="string" value="blacktooth_throne"/>
    <property name="exit.entrance" type="string" value="south"/>
    <property name="exit.isLocked" type="bool" value="true"/>
    <property name="exit.keyId" type="string" value="null"/>
    <property name="exit.oneWay" type="bool" value="false"/>
   </properties>
  </object>
  <object id="5" name="key_final" type="key" x="128.0" y="64.0" width="64.0" height="32.0">
   <properties>
   </properties>
  </object>
  <object id="6" name="hushpuppy_final" type="hushPuppy" x="896.0" y="448.0" width="64.0" height="32.0">
   <properties>
   </properties>
  </object>
  <object id="7" name="crown_final" type="crown" x="768.0" y="384.0" width="64.0" height="32.0">
   <properties>
    <property name="properties" type="string" value="{planetId: castle}"/>
   </properties>
  </object>
 </objectgroup>
 <objectgroup id="4" name="Triggers" width="16" height="16">
  <object id="8" name="door_south_trigger" type="door" x="512.0" y="480.0" width="64.0" height="32.0">
   <properties>
    <property name="targetRoom" type="string" value="bookworld_library_2"/>
    <property name="targetEntrance" type="string" value="north"/>
   </properties>
  </object>
  <object id="9" name="door_north_final_trigger" type="door" x="512.0" y="32.0" width="64.0" height="32.0">
   <properties>
    <property name="targetRoom" type="string" value="blacktooth_throne"/>
    <property name="targetEntrance" type="string" value="south"/>
   </properties>
  </object>
  <object id="10" name="door_final_secret_trigger" type="door" x="832.0" y="96.0" width="64.0" height="32.0">
   <properties>
    <property name="targetRoom" type="string" value="blacktooth_throne"/>
    <property name="targetEntrance" type="string" value="south"/>
   </properties>
  </object>
 </objectgroup>
</map>
