<?xml version="1.0" encoding="UTF-8"?>
<map version="1.10" tiledversion="1.10.2" orientation="isometric" renderorder="right-down" width="8" height="8" tilewidth="64" tileheight="32" infinite="0">
  <tileset firstgid="1" name="mine" tilewidth="64" tileheight="32" tilecount="3" columns="3">
    <image source="../../tiles/mine.png" width="192" height="32"/>
    <tile id="0">
      <properties>
        <property name="surface" value="floor"/>
      </properties>
    </tile>
    <tile id="1">
      <properties>
        <property name="surface" value="wall"/>
      </properties>
    </tile>
    <tile id="2">
      <properties>
        <property name="surface" value="wall_top"/>
      </properties>
    </tile>
  </tileset>
  <layer id="1" name="Floor" width="8" height="8">
    <data encoding="csv">2, 3, 3, 3, 3, 3, 3, 2, 2, 1, 1, 1, 1, 1, 1, 2, 2, 1, 1, 2, 1, 1, 1, 2, 2, 1, 1, 1, 1, 1, 1, 2, 1, 1, 1, 1, 1, 1, 1, 2, 2, 1, 1, 1, 2, 1, 1, 2, 2, 1, 1, 1, 1, 1, 1, 2, 2, 2, 2, 2, 1, 2, 2, 2,</data>
  </layer>
  <objectgroup id="2" name="Objects">
    <object id="1" name="ball_7" type="ball" x="192.0" y="128.0" width="32" height="32"/>
    <object id="2" name="demon_1" type="demon" x="256.0" y="160.0" width="32" height="32"/>
    <object id="3" name="bounce_1" type="bouncingBlock" x="384.0" y="160.0" width="32" height="32"/>
    <object id="4" name="ball_8" type="ball" x="320.0" y="192.0" width="32" height="32"/>
    <object id="5" name="chest_8" type="chest" x="128.0" y="96.0" width="32" height="32"/>
    <object id="6" name="chest_9" type="chest" x="320.0" y="96.0" width="32" height="32"/>
  </objectgroup>
</map>
