<?xml version="1.0" encoding="UTF-8"?>
<map version="1.10" tiledversion="1.10.0" orientation="isometric" renderorder="right-down" width="16" height="16" tilewidth="64" tileheight="32" infinite="0" nextobjectid="100">
 <tileset firstgid="1" source="assets/levels/tilesets/castle.tsx"/>
 <layer id="1" name="Floor" width="16" height="16">
  <data encoding="csv">
0,0,0,0,0,0,0,0,0,0,0,0,0,0,0,0,
0,0,0,0,0,0,0,0,0,0,0,0,0,0,0,0,
0,0,0,0,0,0,0,0,0,0,0,0,0,0,0,0,
0,0,0,0,0,0,0,0,0,0,0,0,0,0,0,0,
0,0,0,0,0,0,0,0,0,0,0,0,0,0,0,0,
0,0,0,0,0,0,0,0,0,0,0,0,0,0,0,0,
0,0,0,0,0,0,0,0,0,0,0,0,0,0,0,0,
0,0,0,0,0,0,0,0,0,0,0,0,0,0,0,0,
0,0,0,0,0,0,0,0,0,0,0,0,0,0,0,0,
0,0,0,0,0,0,0,0,0,0,0,0,0,0,0,0,
0,0,0,0,0,0,0,0,0,0,0,0,0,0,0,0,
0,0,0,0,0,0,0,0,0,0,0,0,0,0,0,0,
0,0,0,0,0,0,0,0,0,0,0,0,0,0,0,0,
0,0,0,0,0,0,0,0,0,0,0,0,0,0,0,0,
0,0,0,0,0,0,0,0,0,0,0,0,0,0,0,0,
0,0,0,0,0,0,0,0,0,0,0,0,0,0,0,0
  </data>
 </layer>
 <layer id="2" name="Walls" width="16" height="16">
  <data encoding="csv">
0,2,2,2,2,2,2,2,2,2,2,2,2,2,2,0,
0,2,0,0,0,0,0,0,0,0,0,0,0,0,2,0,
0,2,0,0,0,0,0,0,0,0,0,0,0,0,2,0,
0,2,0,0,0,0,0,0,0,0,0,0,0,0,2,0,
0,2,0,0,0,0,0,0,0,0,0,0,0,0,2,0,
0,2,0,0,0,0,0,0,0,0,0,0,0,0,2,0,
0,2,0,0,0,0,0,0,0,0,0,0,0,0,2,0,
0,2,0,0,0,0,0,0,0,0,0,0,0,0,2,0,
0,2,0,0,0,0,0,0,0,0,0,0,0,0,2,0,
0,2,0,0,0,0,0,0,0,0,0,0,0,0,2,0,
0,2,0,0,0,0,0,0,0,0,0,0,0,0,2,0,
0,2,0,0,0,0,0,0,0,0,0,0,0,0,2,0,
0,2,0,0,0,0,0,0,0,0,0,0,0,0,2,0,
0,2,0,0,0,0,0,0,0,0,0,0,0,0,2,0,
0,2,0,0,0,0,0,0,0,0,0,0,0,0,2,0,
0,2,2,2,2,2,2,2,2,2,2,2,2,2,2,0
  </data>
 </layer>
 <objectgroup id="3" name="Entities" width="16" height="16">
  <object id="1" name="door_west" type="door" x="64.0" y="256.0" width="64.0" height="32.0">
   <properties>
    <property name="exit" type="string" value="{direction: west, room: castle_hall, entrance: east, isLocked: false, keyId: null, oneWay: false}"/>
    <property name="exit.direction" type="string" value="west"/>
    <property name="exit.room" type="string" value="castle_hall"/>
    <property name="exit.entrance" type="string" value="east"/>
    <property name="exit.isLocked" type="bool" value="false"/>
    <property name="exit.keyId" type="string" value="null"/>
    <property name="exit.oneWay" type="bool" value="false"/>
   </properties>
  </object>
  <object id="2" name="door_north" type="door" x="512.0" y="32.0" width="64.0" height="32.0">
   <properties>
    <property name="exit" type="string" value="{direction: north, room: castle_teleport, entrance: south, isLocked: false, keyId: null, oneWay: false}"/>
    <property name="exit.direction" type="string" value="north"/>
    <property name="exit.room" type="string" value="castle_teleport"/>
    <property name="exit.entrance" type="string" value="south"/>
    <property name="exit.isLocked" type="bool" value="false"/>
    <property name="exit.keyId" type="string" value="null"/>
    <property name="exit.oneWay" type="bool" value="false"/>
   </properties>
  </object>
  <object id="3" name="spring_market" type="spring" x="448.0" y="224.0" width="64.0" height="32.0">
   <properties>
   </properties>
  </object>
  <object id="4" name="monster_market" type="monster" x="768.0" y="128.0" width="64.0" height="32.0">
   <properties>
    <property name="properties" type="string" value="{patrolPoints: [[12, 4, 0], [12, 12, 0]], waitTime: 0.8}"/>
   </properties>
  </object>
  <object id="5" name="hushpuppy_market" type="hushPuppy" x="320.0" y="384.0" width="64.0" height="32.0">
   <properties>
   </properties>
  </object>
  <object id="6" name="bag_market" type="bag" x="896.0" y="448.0" width="64.0" height="32.0">
   <properties>
   </properties>
  </object>
  <object id="7" name="key_market" type="key" x="192.0" y="96.0" width="64.0" height="32.0">
   <properties>
   </properties>
  </object>
 </objectgroup>
 <objectgroup id="4" name="Triggers" width="16" height="16">
  <object id="8" name="door_west_trigger" type="door" x="64.0" y="256.0" width="64.0" height="32.0">
   <properties>
    <property name="targetRoom" type="string" value="castle_hall"/>
    <property name="targetEntrance" type="string" value="east"/>
   </properties>
  </object>
  <object id="9" name="door_north_trigger" type="door" x="512.0" y="32.0" width="64.0" height="32.0">
   <properties>
    <property name="targetRoom" type="string" value="castle_teleport"/>
    <property name="targetEntrance" type="string" value="south"/>
   </properties>
  </object>
 </objectgroup>
</map>
