<?xml version="1.0" encoding="UTF-8"?>
<map version="1.10" tiledversion="1.10.0" orientation="isometric" renderorder="right-down" width="16" height="16" tilewidth="64" tileheight="32" infinite="0" nextobjectid="100">
 <tileset firstgid="1" source="assets/levels/tilesets/castle.tsx"/>
 <layer id="1" name="Floor" width="16" height="16">
  <data encoding="csv">
3,4,4,4,4,4,4,4,4,3,4,4,4,4,4,4,
4,4,4,4,4,4,4,4,3,4,4,4,4,4,4,4,
4,4,1,1,1,1,1,3,1,1,1,1,1,1,1,1,
4,4,1,1,1,1,3,1,1,1,1,1,1,1,1,3,
4,4,1,1,1,3,1,1,1,1,1,1,1,1,3,1,
4,4,1,1,3,1,1,1,1,1,1,1,1,3,1,1,
4,4,1,3,1,1,1,1,1,1,1,1,3,1,1,1,
4,4,3,1,1,1,1,1,1,1,1,3,1,1,1,1,
4,3,1,1,1,1,1,1,1,1,3,1,1,1,1,1,
3,4,1,1,1,1,1,1,1,3,1,1,1,1,1,1,
4,4,1,1,1,1,1,1,3,1,1,1,1,1,1,1,
4,4,1,1,1,1,1,3,1,1,1,1,1,1,1,1,
4,4,1,1,1,1,3,1,1,1,1,1,1,1,1,3,
4,4,1,1,1,3,1,1,1,1,1,1,1,1,3,1,
4,4,1,1,3,1,1,1,1,1,1,1,1,3,1,1,
4,4,1,3,1,1,1,1,1,1,1,1,3,1,1,1
  </data>
 </layer>
 <layer id="2" name="Walls" width="16" height="16">
  <data encoding="csv">
18,17,17,17,17,17,17,17,17,17,17,17,17,17,17,19,
17,0,0,0,0,0,0,0,0,0,0,0,0,0,0,17,
17,0,0,0,0,0,0,0,0,0,0,0,0,0,0,17,
17,0,0,0,0,0,0,0,0,0,0,0,0,0,0,17,
17,0,0,0,0,0,0,0,0,0,0,0,0,0,0,17,
17,0,0,0,0,0,0,0,0,0,0,0,0,0,0,17,
17,0,0,0,0,0,0,0,0,0,0,0,0,0,0,17,
17,0,0,0,0,0,0,0,0,0,0,0,0,0,0,17,
17,0,0,0,0,0,0,0,0,0,0,0,0,0,0,17,
17,0,0,0,0,0,0,0,0,0,0,0,0,0,0,17,
17,0,0,0,0,0,0,0,0,0,0,0,0,0,0,17,
17,0,0,0,0,0,0,0,0,0,0,0,0,0,0,17,
17,0,0,0,0,0,0,0,0,0,0,0,0,0,0,17,
17,0,0,0,0,0,0,0,0,0,0,0,0,0,0,17,
17,0,0,0,0,0,0,0,0,0,0,0,0,0,0,17,
17,17,17,17,17,17,17,17,17,17,17,17,17,17,17,17
  </data>
 </layer>
 <objectgroup id="3" name="Entities" width="16" height="16">
  <object id="1" name="door_south" type="door" x="512.0" y="480.0" width="64.0" height="32.0">
   <properties>
    <property name="exit" type="string" value="{direction: south, room: castle_start, entrance: north, isLocked: false, keyId: null, oneWay: false}"/>
    <property name="exit.direction" type="string" value="south"/>
    <property name="exit.room" type="string" value="castle_start"/>
    <property name="exit.entrance" type="string" value="north"/>
    <property name="exit.isLocked" type="bool" value="false"/>
    <property name="exit.keyId" type="string" value="null"/>
    <property name="exit.oneWay" type="bool" value="false"/>
   </properties>
  </object>
  <object id="2" name="door_east" type="door" x="960.0" y="256.0" width="64.0" height="32.0">
   <properties>
    <property name="exit" type="string" value="{direction: east, room: castle_market, entrance: west, isLocked: false, keyId: null, oneWay: false}"/>
    <property name="exit.direction" type="string" value="east"/>
    <property name="exit.room" type="string" value="castle_market"/>
    <property name="exit.entrance" type="string" value="west"/>
    <property name="exit.isLocked" type="bool" value="false"/>
    <property name="exit.keyId" type="string" value="null"/>
    <property name="exit.oneWay" type="bool" value="false"/>
   </properties>
  </object>
  <object id="3" name="door_west" type="door" x="64.0" y="256.0" width="64.0" height="32.0">
   <properties>
    <property name="exit" type="string" value="{direction: west, room: castle_cell, entrance: east, isLocked: false, keyId: null, oneWay: false}"/>
    <property name="exit.direction" type="string" value="west"/>
    <property name="exit.room" type="string" value="castle_cell"/>
    <property name="exit.entrance" type="string" value="east"/>
    <property name="exit.isLocked" type="bool" value="false"/>
    <property name="exit.keyId" type="string" value="null"/>
    <property name="exit.oneWay" type="bool" value="false"/>
   </properties>
  </object>
  <object id="4" name="conveyor_2" type="conveyor" x="192.0" y="96.0" width="640.0" height="32.0">
   <properties>
    <property name="properties" type="string" value="{conveyorDirection: north, conveyorSpeed: 1.5}"/>
   </properties>
  </object>
  <object id="5" name="switch_hall" type="switch" x="768.0" y="384.0" width="64.0" height="32.0">
   <properties>
    <property name="properties" type="string" value="{targetId: door_market_secret}"/>
   </properties>
  </object>
  <object id="6" name="door_market_secret" type="door" x="640.0" y="64.0" width="64.0" height="32.0">
   <properties>
    <property name="exit" type="string" value="{direction: north, room: castle_market, entrance: south, isLocked: true, keyId: null, oneWay: false}"/>
    <property name="properties" type="string" value="{requiresSwitch: switch_hall}"/>
    <property name="exit.direction" type="string" value="north"/>
    <property name="exit.room" type="string" value="castle_market"/>
    <property name="exit.entrance" type="string" value="south"/>
    <property name="exit.isLocked" type="bool" value="true"/>
    <property name="exit.keyId" type="string" value="null"/>
    <property name="exit.oneWay" type="bool" value="false"/>
   </properties>
  </object>
  <object id="7" name="fish_hall" type="bag" x="320.0" y="160.0" width="64.0" height="32.0">
   <properties>
    <property name="properties" type="string" value="{isAlive: true}"/>
   </properties>
  </object>
  <object id="8" name="crown_hall" type="crown" x="832.0" y="416.0" width="64.0" height="32.0">
   <properties>
    <property name="properties" type="string" value="{planetId: castle}"/>
   </properties>
  </object>
 </objectgroup>
 <objectgroup id="4" name="Triggers" width="16" height="16">
  <object id="9" name="door_south_trigger" type="door" x="512.0" y="480.0" width="64.0" height="32.0">
   <properties>
    <property name="targetRoom" type="string" value="castle_start"/>
    <property name="targetEntrance" type="string" value="north"/>
   </properties>
  </object>
  <object id="10" name="door_east_trigger" type="door" x="960.0" y="256.0" width="64.0" height="32.0">
   <properties>
    <property name="targetRoom" type="string" value="castle_market"/>
    <property name="targetEntrance" type="string" value="west"/>
   </properties>
  </object>
  <object id="11" name="door_west_trigger" type="door" x="64.0" y="256.0" width="64.0" height="32.0">
   <properties>
    <property name="targetRoom" type="string" value="castle_cell"/>
    <property name="targetEntrance" type="string" value="east"/>
   </properties>
  </object>
  <object id="12" name="door_market_secret_trigger" type="door" x="640.0" y="64.0" width="64.0" height="32.0">
   <properties>
    <property name="targetRoom" type="string" value="castle_market"/>
    <property name="targetEntrance" type="string" value="south"/>
   </properties>
  </object>
 </objectgroup>
</map>
