<?xml version="1.0" encoding="UTF-8"?>
<map version="1.10" tiledversion="1.10.0" orientation="isometric" renderorder="right-down" width="16" height="16" tilewidth="64" tileheight="32" infinite="0" nextobjectid="100">
 <tileset firstgid="1" source="assets/levels/tilesets/castle.tsx"/>
 <layer id="1" name="Floor" width="16" height="16">
  <data encoding="csv">
3,4,4,4,4,4,4,4,4,3,4,4,4,4,4,4,
4,4,4,4,4,4,4,4,3,4,4,4,4,4,4,4,
4,4,1,1,1,1,1,3,1,1,1,1,1,1,1,1,
4,4,1,1,1,1,3,1,1,1,1,1,1,1,1,3,
4,4,1,1,1,3,1,1,1,1,1,1,1,1,3,1,
4,4,1,1,3,1,1,1,1,1,1,1,1,3,1,1,
4,4,1,3,1,1,1,1,1,1,1,1,3,1,1,1,
4,4,3,1,1,1,1,1,1,1,1,3,1,1,1,1,
4,3,1,1,1,1,1,1,1,1,3,1,1,1,1,1,
3,4,1,1,1,1,1,1,1,3,1,1,1,1,1,1,
4,4,1,1,1,1,1,1,3,1,1,1,1,1,1,1,
4,4,1,1,1,1,1,3,1,1,1,1,1,1,1,1,
4,4,1,1,1,1,3,1,1,1,1,1,1,1,1,3,
4,4,1,1,1,3,1,1,1,1,1,1,1,1,3,1,
4,4,1,1,3,1,1,1,1,1,1,1,1,3,1,1,
4,4,1,3,1,1,1,1,1,1,1,1,3,1,1,1
  </data>
 </layer>
 <layer id="2" name="Walls" width="16" height="16">
  <data encoding="csv">
18,17,17,17,17,17,17,17,17,17,17,17,17,17,17,19,
17,0,0,0,0,0,0,0,0,0,0,0,0,0,0,17,
17,0,0,0,0,0,0,0,0,0,0,0,0,0,0,17,
17,0,0,0,0,0,0,0,0,0,0,0,0,0,0,17,
17,0,0,0,0,0,0,0,0,0,0,0,0,0,0,17,
17,0,0,0,0,0,0,0,0,0,0,0,0,0,0,17,
17,0,0,0,0,0,0,0,0,0,0,0,0,0,0,17,
17,0,0,0,0,0,0,0,0,0,0,0,0,0,0,17,
17,0,0,0,0,0,0,0,0,0,0,0,0,0,0,17,
17,0,0,0,0,0,0,0,0,0,0,0,0,0,0,17,
17,0,0,0,0,0,0,0,0,0,0,0,0,0,0,17,
17,0,0,0,0,0,0,0,0,0,0,0,0,0,0,17,
17,0,0,0,0,0,0,0,0,0,0,0,0,0,0,17,
17,0,0,0,0,0,0,0,0,0,0,0,0,0,0,17,
17,0,0,0,0,0,0,0,0,0,0,0,0,0,0,17,
17,17,17,17,17,17,17,17,17,17,17,17,17,17,17,17
  </data>
 </layer>
 <objectgroup id="3" name="Entities" width="16" height="16">
  <object id="1" name="door_west" type="door" x="64.0" y="256.0" width="64.0" height="32.0">
   <properties>
    <property name="exit" type="string" value="{direction: west, room: castle_start, entrance: east, isLocked: false, keyId: null, oneWay: false}"/>
    <property name="exit.direction" type="string" value="west"/>
    <property name="exit.room" type="string" value="castle_start"/>
    <property name="exit.entrance" type="string" value="east"/>
    <property name="exit.isLocked" type="bool" value="false"/>
    <property name="exit.keyId" type="string" value="null"/>
    <property name="exit.oneWay" type="bool" value="false"/>
   </properties>
  </object>
  <object id="2" name="door_north_locked" type="door" x="512.0" y="32.0" width="64.0" height="32.0">
   <properties>
    <property name="exit" type="string" value="{direction: north, room: castle_hall, entrance: west, isLocked: true, keyId: key_1, oneWay: false}"/>
    <property name="exit.direction" type="string" value="north"/>
    <property name="exit.room" type="string" value="castle_hall"/>
    <property name="exit.entrance" type="string" value="west"/>
    <property name="exit.isLocked" type="bool" value="true"/>
    <property name="exit.keyId" type="string" value="key_1"/>
    <property name="exit.oneWay" type="bool" value="false"/>
   </properties>
  </object>
  <object id="3" name="teleport_return" type="teleport" x="512.0" y="256.0" width="64.0" height="32.0">
   <properties>
    <property name="properties" type="string" value="{targetRoom: castle_start, targetEntrance: east, oneWay: false}"/>
   </properties>
  </object>
  <object id="4" name="spring_2" type="spring" x="320.0" y="160.0" width="64.0" height="32.0">
   <properties>
   </properties>
  </object>
  <object id="5" name="monster_2" type="monster" x="640.0" y="320.0" width="64.0" height="32.0">
   <properties>
    <property name="properties" type="string" value="{patrolPoints: [[10, 10, 0], [15, 10, 0], [15, 5, 0], [10, 5, 0]], waitTime: 1.0}"/>
   </properties>
  </object>
  <object id="6" name="hushpuppy_2" type="hushPuppy" x="192.0" y="384.0" width="64.0" height="32.0">
   <properties>
   </properties>
  </object>
 </objectgroup>
 <objectgroup id="4" name="Triggers" width="16" height="16">
  <object id="7" name="door_west_trigger" type="door" x="64.0" y="256.0" width="64.0" height="32.0">
   <properties>
    <property name="targetRoom" type="string" value="castle_start"/>
    <property name="targetEntrance" type="string" value="east"/>
   </properties>
  </object>
  <object id="8" name="door_north_locked_trigger" type="door" x="512.0" y="32.0" width="64.0" height="32.0">
   <properties>
    <property name="targetRoom" type="string" value="castle_hall"/>
    <property name="targetEntrance" type="string" value="west"/>
   </properties>
  </object>
 </objectgroup>
</map>
