<?xml version="1.0" encoding="UTF-8"?>
<map version="1.10" tiledversion="1.10.0" orientation="isometric" renderorder="right-down" width="16" height="16" tilewidth="64" tileheight="32" infinite="0" nextobjectid="100">
 <tileset firstgid="1" source="assets/levels/tilesets/castle.tsx"/>
 <layer id="1" name="Floor" width="16" height="16">
  <data encoding="csv">
0,0,0,0,0,0,0,0,0,0,0,0,0,0,0,0,
0,0,0,0,0,0,0,0,0,0,0,0,0,0,0,0,
0,0,0,0,0,0,0,0,0,0,0,0,0,0,0,0,
0,0,0,0,0,0,0,0,0,0,0,0,0,0,0,0,
0,0,0,0,0,0,0,0,0,0,0,0,0,0,0,0,
0,0,0,0,0,0,0,0,0,0,0,0,0,0,0,0,
0,0,0,0,0,0,0,0,0,0,0,0,0,0,0,0,
0,0,0,0,0,0,0,0,0,0,0,0,0,0,0,0,
0,0,0,0,0,0,0,0,0,0,0,0,0,0,0,0,
0,0,0,0,0,0,0,0,0,0,0,0,0,0,0,0,
0,0,0,0,0,0,0,0,0,0,0,0,0,0,0,0,
0,0,0,0,0,0,0,0,0,0,0,0,0,0,0,0,
0,0,0,0,0,0,0,0,0,0,0,0,0,0,0,0,
0,0,0,0,0,0,0,0,0,0,0,0,0,0,0,0,
0,0,0,0,0,0,0,0,0,0,0,0,0,0,0,0,
0,0,0,0,0,0,0,0,0,0,0,0,0,0,0,0
  </data>
 </layer>
 <layer id="2" name="Walls" width="16" height="16">
  <data encoding="csv">
0,2,2,2,2,2,2,2,2,2,2,2,2,2,2,0,
0,2,0,0,0,0,0,0,0,0,0,0,0,0,2,0,
0,2,0,0,0,0,0,0,0,0,0,0,0,0,2,0,
0,2,0,0,0,0,0,0,0,0,0,0,0,0,2,0,
0,2,0,0,0,0,0,0,0,0,0,0,0,0,2,0,
0,2,0,0,0,0,0,0,0,0,0,0,0,0,2,0,
0,2,0,0,0,0,0,0,0,0,0,0,0,0,2,0,
0,2,0,0,0,0,0,0,0,0,0,0,0,0,2,0,
0,2,0,0,0,0,0,0,0,0,0,0,0,0,2,0,
0,2,0,0,0,0,0,0,0,0,0,0,0,0,2,0,
0,2,0,0,0,0,0,0,0,0,0,0,0,0,2,0,
0,2,0,0,0,0,0,0,0,0,0,0,0,0,2,0,
0,2,0,0,0,0,0,0,0,0,0,0,0,0,2,0,
0,2,0,0,0,0,0,0,0,0,0,0,0,0,2,0,
0,2,0,0,0,0,0,0,0,0,0,0,0,0,2,0,
0,2,2,2,2,2,2,2,2,2,2,2,2,2,2,0
  </data>
 </layer>
 <objectgroup id="3" name="Entities" width="16" height="16">
  <object id="1" name="door_west" type="door" x="64.0" y="256.0" width="64.0" height="32.0">
   <properties>
    <property name="exit" type="string" value="{direction: west, room: egyptus_pyramid_1, entrance: east, isLocked: false, keyId: null, oneWay: false}"/>
    <property name="exit.direction" type="string" value="west"/>
    <property name="exit.room" type="string" value="egyptus_pyramid_1"/>
    <property name="exit.entrance" type="string" value="east"/>
    <property name="exit.isLocked" type="bool" value="false"/>
    <property name="exit.keyId" type="string" value="null"/>
    <property name="exit.oneWay" type="bool" value="false"/>
   </properties>
  </object>
  <object id="2" name="door_south" type="door" x="512.0" y="480.0" width="64.0" height="32.0">
   <properties>
    <property name="exit" type="string" value="{direction: south, room: egyptus_pyramid_2, entrance: north, isLocked: false, keyId: null, oneWay: false}"/>
    <property name="exit.direction" type="string" value="south"/>
    <property name="exit.room" type="string" value="egyptus_pyramid_2"/>
    <property name="exit.entrance" type="string" value="north"/>
    <property name="exit.isLocked" type="bool" value="false"/>
    <property name="exit.keyId" type="string" value="null"/>
    <property name="exit.oneWay" type="bool" value="false"/>
   </properties>
  </object>
  <object id="3" name="teleport_penitentiary" type="teleport" x="512.0" y="32.0" width="128.0" height="64.0">
   <properties>
    <property name="properties" type="string" value="{targetRoom: penitentiary_entrance, targetEntrance: south, oneWay: false}"/>
   </properties>
  </object>
  <object id="4" name="guardian_tomb" type="guardian" x="320.0" y="160.0" width="64.0" height="32.0">
   <properties>
    <property name="properties" type="string" value="{patrolPoints: [[5, 5, 0], [11, 5, 0], [11, 11, 0], [5, 11, 0]]}"/>
   </properties>
  </object>
  <object id="5" name="spring_tomb" type="spring" x="768.0" y="96.0" width="64.0" height="32.0">
   <properties>
   </properties>
  </object>
  <object id="6" name="fish_tomb" type="bag" x="832.0" y="416.0" width="64.0" height="32.0">
   <properties>
    <property name="properties" type="string" value="{isAlive: true}"/>
   </properties>
  </object>
  <object id="7" name="crown_tomb" type="crown" x="896.0" y="64.0" width="64.0" height="32.0">
   <properties>
    <property name="properties" type="string" value="{planetId: egyptus}"/>
   </properties>
  </object>
 </objectgroup>
 <objectgroup id="4" name="Triggers" width="16" height="16">
  <object id="8" name="door_west_trigger" type="door" x="64.0" y="256.0" width="64.0" height="32.0">
   <properties>
    <property name="targetRoom" type="string" value="egyptus_pyramid_1"/>
    <property name="targetEntrance" type="string" value="east"/>
   </properties>
  </object>
  <object id="9" name="door_south_trigger" type="door" x="512.0" y="480.0" width="64.0" height="32.0">
   <properties>
    <property name="targetRoom" type="string" value="egyptus_pyramid_2"/>
    <property name="targetEntrance" type="string" value="north"/>
   </properties>
  </object>
 </objectgroup>
</map>
