<?xml version="1.0" encoding="UTF-8"?>
<map version="1.10" tiledversion="1.10.0" orientation="isometric" renderorder="right-down" width="16" height="16" tilewidth="64" tileheight="32" infinite="0" nextobjectid="100">
 <tileset firstgid="1" source="../tilesets/castle.tsx"/>
 <layer id="1" name="Floor" width="16" height="16">
  <data encoding="csv">
0,0,0,0,0,0,0,0,0,0,0,0,0,0,0,0,
0,0,0,0,0,0,0,0,0,0,0,0,0,0,0,0,
0,0,0,0,0,0,0,0,0,0,0,0,0,0,0,0,
0,0,0,0,0,0,0,0,0,0,0,0,0,0,0,0,
0,0,0,0,0,0,0,0,0,0,0,0,0,0,0,0,
0,0,0,0,0,0,0,0,0,0,0,0,0,0,0,0,
0,0,0,0,0,0,0,0,0,0,0,0,0,0,0,0,
0,0,0,0,0,0,0,0,0,0,0,0,0,0,0,0,
0,0,0,0,0,0,0,0,0,0,0,0,0,0,0,0,
0,0,0,0,0,0,0,0,0,0,0,0,0,0,0,0,
0,0,0,0,0,0,0,0,0,0,0,0,0,0,0,0,
0,0,0,0,0,0,0,0,0,0,0,0,0,0,0,0,
0,0,0,0,0,0,0,0,0,0,0,0,0,0,0,0,
0,0,0,0,0,0,0,0,0,0,0,0,0,0,0,0,
0,0,0,0,0,0,0,0,0,0,0,0,0,0,0,0,
0,0,0,0,0,0,0,0,0,0,0,0,0,0,0,0
  </data>
 </layer>
 <layer id="2" name="Walls" width="16" height="16">
  <data encoding="csv">
0,2,2,2,2,2,2,2,2,2,2,2,2,2,2,0,
0,2,0,0,0,0,0,0,0,0,0,0,0,0,2,0,
0,2,0,0,0,0,0,0,0,0,0,0,0,0,2,0,
0,2,0,0,0,0,0,0,0,0,0,0,0,0,2,0,
0,2,0,0,0,0,0,0,0,0,0,0,0,0,2,0,
0,2,0,0,0,0,0,0,0,0,0,0,0,0,2,0,
0,2,0,0,0,0,0,0,0,0,0,0,0,0,2,0,
0,2,0,0,0,0,0,0,0,0,0,0,0,0,2,0,
0,2,0,0,0,0,0,0,0,0,0,0,0,0,2,0,
0,2,0,0,0,0,0,0,0,0,0,0,0,0,2,0,
0,2,0,0,0,0,0,0,0,0,0,0,0,0,2,0,
0,2,0,0,0,0,0,0,0,0,0,0,0,0,2,0,
0,2,0,0,0,0,0,0,0,0,0,0,0,0,2,0,
0,2,0,0,0,0,0,0,0,0,0,0,0,0,2,0,
0,2,0,0,0,0,0,0,0,0,0,0,0,0,2,0,
0,2,2,2,2,2,2,2,2,2,2,2,2,2,2,0
  </data>
 </layer>
 <objectgroup id="3" name="Entities" width="16" height="16">
  <object id="1" name="door_north" type="door" x="512.0" y="32.0" width="64.0" height="32.0">
   <properties>
    <property name="exit" type="string" value="{direction: north, room: egyptus_pyramid_1, entrance: south, isLocked: false, keyId: null, oneWay: false}"/>
    <property name="exit.direction" type="string" value="north"/>
    <property name="exit.room" type="string" value="egyptus_pyramid_1"/>
    <property name="exit.entrance" type="string" value="south"/>
    <property name="exit.isLocked" type="bool" value="false"/>
    <property name="exit.keyId" type="string" value="null"/>
    <property name="exit.oneWay" type="bool" value="false"/>
   </properties>
  </object>
  <object id="2" name="teleport_castle" type="teleport" x="512.0" y="480.0" width="128.0" height="64.0">
   <properties>
    <property name="properties" type="string" value="{targetRoom: castle_teleport, targetEntrance: up, oneWay: false}"/>
   </properties>
  </object>
  <object id="3" name="spring_egyptus" type="spring" x="256.0" y="224.0" width="64.0" height="32.0">
   <properties>
   </properties>
  </object>
  <object id="4" name="fish_egyptus" type="bag" x="768.0" y="384.0" width="64.0" height="32.0">
   <properties>
    <property name="properties" type="string" value="{isAlive: true}"/>
   </properties>
  </object>
  <object id="5" name="monster_egyptus" type="monster" x="128.0" y="64.0" width="64.0" height="32.0">
   <properties>
    <property name="properties" type="string" value="{patrolPoints: [[2, 2, 0], [14, 2, 0]], waitTime: 1.0}"/>
   </properties>
  </object>
 </objectgroup>
 <objectgroup id="4" name="Triggers" width="16" height="16">
  <object id="6" name="door_north_trigger" type="door" x="512.0" y="32.0" width="64.0" height="32.0">
   <properties>
    <property name="targetRoom" type="string" value="egyptus_pyramid_1"/>
    <property name="targetEntrance" type="string" value="south"/>
   </properties>
  </object>
 </objectgroup>
</map>
