<?xml version="1.0" encoding="UTF-8"?>
<map version="1.10" tiledversion="1.10.0" orientation="isometric" renderorder="right-down" width="16" height="16" tilewidth="64" tileheight="32" infinite="0" nextobjectid="100">
 <tileset firstgid="1" source="assets/levels/tilesets/safari.tsx"/>
 <layer id="1" name="Floor" width="16" height="16">
  <data encoding="csv">
3,4,4,4,4,4,4,4,4,3,4,4,4,4,4,4,
4,4,4,4,4,4,4,4,3,4,4,4,4,4,4,4,
4,4,1,1,1,1,1,3,1,1,1,1,1,1,1,1,
4,4,1,1,1,1,3,1,1,1,1,1,1,1,1,3,
4,4,1,1,1,3,1,1,1,1,1,1,1,1,3,1,
4,4,1,1,3,1,1,1,1,1,1,1,1,3,1,1,
4,4,1,3,1,1,1,1,1,1,1,1,3,1,1,1,
4,4,3,1,1,1,1,1,1,1,1,3,1,1,1,1,
4,3,1,1,1,1,1,1,1,1,3,1,1,1,1,1,
3,4,1,1,1,1,1,1,1,3,1,1,1,1,1,1,
4,4,1,1,1,1,1,1,3,1,1,1,1,1,1,1,
4,4,1,1,1,1,1,3,1,1,1,1,1,1,1,1,
4,4,1,1,1,1,3,1,1,1,1,1,1,1,1,3,
4,4,1,1,1,3,1,1,1,1,1,1,1,1,3,1,
4,4,1,1,3,1,1,1,1,1,1,1,1,3,1,1,
4,4,1,3,1,1,1,1,1,1,1,1,3,1,1,1
  </data>
 </layer>
 <layer id="2" name="Walls" width="16" height="16">
  <data encoding="csv">
18,17,17,17,17,17,17,17,17,17,17,17,17,17,17,19,
17,0,0,0,0,0,0,0,0,0,0,0,0,0,0,17,
17,0,0,0,0,0,0,0,0,0,0,0,0,0,0,17,
17,0,0,0,0,0,0,0,0,0,0,0,0,0,0,17,
17,0,0,0,0,0,0,0,0,0,0,0,0,0,0,17,
17,0,0,0,0,0,0,0,0,0,0,0,0,0,0,17,
17,0,0,0,0,0,0,0,0,0,0,0,0,0,0,17,
17,0,0,0,0,0,0,0,0,0,0,0,0,0,0,17,
17,0,0,0,0,0,0,0,0,0,0,0,0,0,0,17,
17,0,0,0,0,0,0,0,0,0,0,0,0,0,0,17,
17,0,0,0,0,0,0,0,0,0,0,0,0,0,0,17,
17,0,0,0,0,0,0,0,0,0,0,0,0,0,0,17,
17,0,0,0,0,0,0,0,0,0,0,0,0,0,0,17,
17,0,0,0,0,0,0,0,0,0,0,0,0,0,0,17,
17,0,0,0,0,0,0,0,0,0,0,0,0,0,0,17,
17,17,17,17,17,17,17,17,17,17,17,17,17,17,17,17
  </data>
 </layer>
 <objectgroup id="3" name="Entities" width="16" height="16">
  <object id="1" name="door_south" type="door" x="512.0" y="480.0" width="64.0" height="32.0">
   <properties>
    <property name="exit" type="string" value="{direction: south, room: safari_jungle_1, entrance: north, isLocked: false, keyId: null, oneWay: false}"/>
    <property name="exit.direction" type="string" value="south"/>
    <property name="exit.room" type="string" value="safari_jungle_1"/>
    <property name="exit.entrance" type="string" value="north"/>
    <property name="exit.isLocked" type="bool" value="false"/>
    <property name="exit.keyId" type="string" value="null"/>
    <property name="exit.oneWay" type="bool" value="false"/>
   </properties>
  </object>
  <object id="2" name="teleport_bookworld" type="teleport" x="512.0" y="32.0" width="128.0" height="64.0">
   <properties>
    <property name="properties" type="string" value="{targetRoom: bookworld_entrance, targetEntrance: south, oneWay: false}"/>
   </properties>
  </object>
  <object id="3" name="guardian_fort" type="guardian" x="320.0" y="160.0" width="64.0" height="32.0">
   <properties>
    <property name="properties" type="string" value="{planetId: safari, patrolPoints: [[5, 5, 0], [11, 5, 0], [11, 11, 0], [5, 11, 0]]}"/>
   </properties>
  </object>
  <object id="4" name="spring_fort" type="spring" x="768.0" y="96.0" width="64.0" height="32.0">
   <properties>
   </properties>
  </object>
  <object id="5" name="hushpuppy_fort" type="hushPuppy" x="192.0" y="416.0" width="64.0" height="32.0">
   <properties>
   </properties>
  </object>
  <object id="6" name="crown_fort" type="crown" x="832.0" y="416.0" width="64.0" height="32.0">
   <properties>
    <property name="properties" type="string" value="{planetId: safari}"/>
   </properties>
  </object>
 </objectgroup>
 <objectgroup id="4" name="Triggers" width="16" height="16">
  <object id="7" name="door_south_trigger" type="door" x="512.0" y="480.0" width="64.0" height="32.0">
   <properties>
    <property name="targetRoom" type="string" value="safari_jungle_1"/>
    <property name="targetEntrance" type="string" value="north"/>
   </properties>
  </object>
 </objectgroup>
</map>
